src/images/sign-up.svg

<svg xmlns="http://www.w3.org/2000/svg" width="80" height="80" viewBox="0 0 80 80" fill="none"><script xmlns=""/>
<g clip-path="url(#clip0_2714_103)">
<path fill-rule="evenodd" clip-rule="evenodd" d="M36.0116 36.4868C32.9016 38.6998 29.1016 40.0019 25.0016 40.0019C14.5116 40.0019 6.00159 31.4878 6.00159 21.0018C6.00159 10.5157 14.5116 2.00171 25.0016 2.00171C35.3216 2.00171 43.7416 10.2538 43.9916 20.5168C47.1016 18.3038 50.9016 17.0018 55.0016 17.0018C65.4916 17.0018 74.0016 25.5158 74.0016 36.0018C74.0016 46.4879 65.4916 55.0019 55.0016 55.0019C54.0816 55.0019 53.1716 54.9359 52.2817 54.8079C52.7516 56.4589 53.0016 58.2019 53.0016 60.0019C53.0016 70.488 44.4916 79.002 34.0016 79.002C23.5116 79.002 15.0016 70.488 15.0016 60.0019C15.0016 49.5159 23.5116 41.0019 34.0016 41.0019C34.9216 41.0019 35.8316 41.0679 36.7216 41.1959C36.2916 39.6929 36.0516 38.1158 36.0116 36.4868ZM41.9616 22.1888C41.9916 21.7968 42.0016 21.4008 42.0016 21.0018C42.0016 11.6187 34.3816 4.00172 25.0016 4.00172C15.6216 4.00172 8.00159 11.6187 8.00159 21.0018C8.00159 30.3848 15.6216 38.0019 25.0016 38.0019C29.2516 38.0019 33.1416 36.4389 36.1216 33.8568C36.6316 29.2788 38.7816 25.1918 41.9616 22.1888ZM51.5216 52.6449C52.6416 52.8789 53.8116 53.0019 55.0016 53.0019C64.3816 53.0019 72.0016 45.3849 72.0016 36.0018C72.0016 26.6188 64.3816 19.0018 55.0016 19.0018C45.6216 19.0018 38.0016 26.6188 38.0016 36.0018C38.0016 37.9849 38.3416 39.8889 38.9716 41.6579C44.6416 43.1939 49.2716 47.2979 51.5216 52.6449ZM34.0016 43.0019C24.6216 43.0019 17.0016 50.6189 17.0016 60.0019C17.0016 69.385 24.6216 77.002 34.0016 77.002C43.3816 77.002 51.0016 69.385 51.0016 60.0019C51.0016 50.6189 43.3816 43.0019 34.0016 43.0019ZM33.0016 59.3779L26.2516 51.6609C25.8816 51.2449 25.9316 50.6129 26.3416 50.2489C26.7616 49.8859 27.3916 49.9279 27.7516 50.3429L34.0016 57.4839L40.2516 50.3429C40.6116 49.9279 41.2416 49.8859 41.6616 50.2489C42.0716 50.6129 42.1216 51.2449 41.7516 51.6609L35.0016 59.3779V60.0019H39.0016C39.5516 60.0019 40.0016 60.4499 40.0016 61.0019C40.0016 61.554 39.5516 62.002 39.0016 62.002H35.0016V64.002H39.0016C39.5516 64.002 40.0016 64.45 40.0016 65.002C40.0016 65.554 39.5516 66.002 39.0016 66.002H35.0016V72.002C35.0016 72.554 34.5516 73.002 34.0016 73.002C33.4516 73.002 33.0016 72.554 33.0016 72.002V66.002H29.0016C28.4516 66.002 28.0016 65.554 28.0016 65.002C28.0016 64.45 28.4516 64.002 29.0016 64.002H33.0016V62.002H29.0016C28.4516 62.002 28.0016 61.554 28.0016 61.0019C28.0016 60.4499 28.4516 60.0019 29.0016 60.0019H33.0016V59.3779ZM20.0016 17.0018C20.0016 17.7978 20.3216 18.5608 20.8816 19.1228C21.4416 19.6858 22.2016 20.0018 23.0016 20.0018H27.0016C29.7616 20.0018 32.0016 22.2398 32.0016 24.9998V25.0018C32.0016 26.3278 31.4716 27.5998 30.5416 28.5378C29.6016 29.4748 28.3316 30.0018 27.0016 30.0018H26.0016V33.0018C26.0016 33.5538 25.5516 34.0018 25.0016 34.0018C24.4516 34.0018 24.0016 33.5538 24.0016 33.0018V30.0018H23.0016C21.6716 30.0018 20.4016 29.4748 19.4616 28.5378C18.5316 27.5998 18.0016 26.3278 18.0016 25.0018C18.0016 23.6448 20.0016 23.6448 20.0016 25.0018C20.0016 25.7978 20.3216 26.5608 20.8816 27.1228C21.4416 27.6858 22.2016 28.0018 23.0016 28.0018H27.0016C27.8016 28.0018 28.5616 27.6858 29.1216 27.1228C29.6816 26.5608 30.0016 25.7978 30.0016 25.0018V24.9998C30.0016 23.3438 28.6616 22.0018 27.0016 22.0018H23.0016C21.6716 22.0018 20.4016 21.4748 19.4616 20.5378C18.5316 19.5998 18.0016 18.3278 18.0016 17.0018C18.0016 15.6758 18.5316 14.4037 19.4616 13.4657C20.4016 12.5287 21.6716 12.0017 23.0016 12.0017H24.0016V9.00174C24.0016 8.44974 24.4516 8.00173 25.0016 8.00173C25.5516 8.00173 26.0016 8.44974 26.0016 9.00174V12.0017H27.0016C28.3316 12.0017 29.6016 12.5287 30.5416 13.4657C31.4716 14.4037 32.0016 15.6758 32.0016 17.0018C32.0016 17.9448 31.0016 18.0018 31.0016 18.0018C30.7416 18.0018 30.5016 17.9018 30.3316 17.7388C30.1616 17.5998 30.0216 17.3878 30.0016 17.0628V17.0018C30.0016 16.2058 29.6816 15.4428 29.1216 14.8808C28.5616 14.3178 27.8016 14.0018 27.0016 14.0018H23.0016C22.2016 14.0018 21.4416 14.3178 20.8816 14.8808C20.3216 15.4428 20.0016 16.2058 20.0016 17.0018ZM49.0016 29.0018H48.0016C47.4516 29.0018 47.0016 28.5538 47.0016 28.0018C47.0016 27.4498 47.4516 27.0018 48.0016 27.0018H52.0016V25.0018C52.0016 24.4498 52.4516 24.0018 53.0016 24.0018C53.5516 24.0018 54.0016 24.4498 54.0016 25.0018V27.0018H56.0016V25.0018C56.0016 24.4498 56.4516 24.0018 57.0016 24.0018C57.5516 24.0018 58.0016 24.4498 58.0016 25.0018V27.0028C60.7316 27.0608 62.9217 29.2888 62.9217 32.0278C62.9217 33.5168 62.2716 34.8539 61.2416 35.7749C61.6616 36.0139 62.0517 36.3098 62.4017 36.6568C63.4217 37.6839 64.0016 39.0749 64.0016 40.5269V40.5299C64.0016 41.9809 63.4217 43.3729 62.4017 44.3989C61.3717 45.4249 59.9817 46.0019 58.5317 46.0019H58.0016V48.0019C58.0016 48.5539 57.5516 49.0019 57.0016 49.0019C56.4516 49.0019 56.0016 48.5539 56.0016 48.0019V46.0019H54.0016V48.0019C54.0016 48.5539 53.5516 49.0019 53.0016 49.0019C52.4516 49.0019 52.0016 48.5539 52.0016 48.0019V46.0019H48.0016C47.4516 46.0019 47.0016 45.5539 47.0016 45.0019C47.0016 44.4499 47.4516 44.0019 48.0016 44.0019H49.0016V29.0018ZM57.8916 29.0018H51.0016V35.0549H57.8916C59.5616 35.0549 60.9217 33.6998 60.9217 32.0278C60.9217 30.3568 59.5616 29.0018 57.8916 29.0018ZM51.0016 44.0019H58.5317C59.4517 44.0019 60.3316 43.6359 60.9816 42.9849C61.6316 42.3339 62.0016 41.4509 62.0016 40.5299V40.5269C62.0016 39.6059 61.6316 38.7229 60.9816 38.0719C60.3316 37.4199 59.4517 37.0549 58.5317 37.0549H51.0016V44.0019Z" fill="url(#paint0_linear_2714_103)"/>
</g>
<defs>
<linearGradient id="paint0_linear_2714_103" x1="52.0016" y1="50.0019" x2="13.0015" y2="17.0019" gradientUnits="userSpaceOnUse">
<stop stop-color="#0054FA"/>
<stop offset="1" stop-color="#0099FA"/>
</linearGradient>
<clipPath id="clip0_2714_103">
<rect width="80" height="80" fill="white"/>
</clipPath>
</defs>
<script xmlns=""/></svg>

<svg xmlns="http://www.w3.org/2000/svg" width="80" height="80" fill="none"><script/><g clip-path="url(#a)"><path fill-rule="evenodd" clip-rule="evenodd" d="M36.012 36.487a18.927 18.927 0 0 1-11.01 3.515c-10.49 0-19-8.514-19-19s8.51-19 19-19c10.32 0 18.74 8.252 18.99 18.515a18.927 18.927 0 0 1 11.01-3.515c10.49 0 19 8.514 19 19s-8.51 19-19 19c-.92 0-1.83-.066-2.72-.194.47 1.65.72 3.394.72 5.194 0 10.486-8.51 19-19 19s-19-8.514-19-19 8.51-19 19-19c.92 0 1.83.066 2.72.194-.43-1.503-.67-3.08-.71-4.71zm5.95-14.298c.03-.392.04-.788.04-1.187 0-9.383-7.62-17-17-17-9.38 0-17 7.617-17 17s7.62 17 17 17c4.25 0 8.14-1.563 11.12-4.145.51-4.578 2.66-8.665 5.84-11.668zm9.56 30.456c1.12.234 2.29.357 3.48.357 9.38 0 17-7.617 17-17s-7.62-17-17-17c-9.38 0-17 7.617-17 17 0 1.983.34 3.887.97 5.656 5.67 1.536 10.3 5.64 12.55 10.987zm-17.52-9.643c-9.38 0-17 7.617-17 17s7.62 17 17 17c9.38 0 17-7.617 17-17s-7.62-17-17-17zm-1 16.376-6.75-7.717a1 1 0 1 1 1.5-1.318l6.25 7.14 6.25-7.14a1 1 0 1 1 1.5 1.318l-6.75 7.717v.624h4c.55 0 1 .448 1 1s-.45 1-1 1h-4v2h4c.55 0 1 .448 1 1s-.45 1-1 1h-4v6c0 .552-.45 1-1 1s-1-.448-1-1v-6h-4c-.55 0-1-.448-1-1s.45-1 1-1h4v-2h-4c-.55 0-1-.448-1-1s.45-1 1-1h4v-.624zm-13-42.376c0 .796.32 1.559.88 2.12.56.564 1.32.88 2.12.88h4a5 5 0 0 1 5 4.998v.002a5.03 5.03 0 0 1-1.46 3.536 5.01 5.01 0 0 1-3.54 1.464h-1v3c0 .552-.45 1-1 1s-1-.448-1-1v-3h-1a5.01 5.01 0 0 1-3.54-1.464 5.03 5.03 0 0 1-1.46-3.536c0-1.357 2-1.357 2 0 0 .796.32 1.559.88 2.12.56.564 1.32.88 2.12.88h4c.8 0 1.56-.316 2.12-.88a3.01 3.01 0 0 0 .88-2.12V25a2.997 2.997 0 0 0-3-2.998h-4a5.01 5.01 0 0 1-3.54-1.464 5.03 5.03 0 0 1-1.46-3.536 5.03 5.03 0 0 1 1.46-3.536 5.01 5.01 0 0 1 3.54-1.464h1v-3c0-.552.45-1 1-1s1 .448 1 1v3h1c1.33 0 2.6.527 3.54 1.464a5.03 5.03 0 0 1 1.46 3.536c0 .943-1 1-1 1-.26 0-.5-.1-.67-.263a.904.904 0 0 1-.33-.676v-.061a3.01 3.01 0 0 0-.88-2.121 2.984 2.984 0 0 0-2.12-.88h-4c-.8 0-1.56.317-2.12.88a3.01 3.01 0 0 0-.88 2.12zm29 12h-1c-.55 0-1-.448-1-1s.45-1 1-1h4v-2c0-.552.45-1 1-1s1 .448 1 1v2h2v-2c0-.552.45-1 1-1s1 .448 1 1v2a5.026 5.026 0 0 1 3.24 8.773c.42.239.81.535 1.16.882a5.498 5.498 0 0 1 1.6 3.87v.003c0 1.45-.58 2.843-1.6 3.869a5.484 5.484 0 0 1-3.87 1.603h-.53v2c0 .552-.45 1-1 1s-1-.448-1-1v-2h-2v2c0 .552-.45 1-1 1s-1-.448-1-1v-2h-4c-.55 0-1-.448-1-1s.45-1 1-1h1v-15zm8.89 0h-6.89v6.053h6.89a3.03 3.03 0 0 0 3.03-3.027 3.03 3.03 0 0 0-3.03-3.026zm-6.89 15h7.53a3.479 3.479 0 0 0 3.47-3.472v-.003a3.479 3.479 0 0 0-3.47-3.472h-7.53v6.947z" fill="url(#b)"/></g><defs><linearGradient id="b" x1="52.002" y1="50.002" x2="13.002" y2="17.002" gradientUnits="userSpaceOnUse"><stop stop-color="#0054FA"/><stop offset="1" stop-color="#0099FA"/></linearGradient><clipPath id="a"><path fill="#fff" d="M0 0h80v80H0z"/></clipPath></defs><script/></svg>
